X:1
T:Polduilly Bridge
T:Polduilly Bridge
T:Alexander Walker
C:Alexander Walker
L:1/8
M:2/2
K:A
V:1 treble 
V:1
 B | A2 EC [A,E]AEC | A2 EC B,BGE | A2 EC [A,E]AEC | B,BGE (A2 A) :| c | A/A/A (c/B/A) eAcA | %7
 eAcA fBdf | eAcA ecAE | DFEC A,3 c | A/A/A (c/B/A) eAcA | eAcA fBdf | cedf eagb | gfec (A2 A) || %14

